imgs/nationbuilder/nationbuilder_rebrand1.svg

<svg height="300" viewBox="0 0 500 300" width="500" xmlns="http://www.w3.org/2000/svg"><g fill="none" fill-rule="evenodd"><path d="m0 0h500v300h-500z" fill="#60bbd5"/><g fill="#fff"><path d="m108.780004 85.6659984-4.067484 1.7500779v-4.0024345l4.067484-1.7696637zm0 6.9845167-4.067484 1.7500779v-4.0024345l4.067484-1.7696636zm0 6.983885-4.067484 1.7500779v-4.0024345l4.067484-1.7696636zm-5.905636-11.5479871-4.0668296 1.7507097v-4.0024345l4.0668296-1.7702954zm0 6.9845168-4.0668296 1.7500779v-4.0024346l4.0668296-1.7696636zm0 6.9838852-4.0668296 1.750078v-4.0024349l4.0668296-1.7696636zm-6.1463617-11.290846-4.0668296 1.750078v-4.0024346l4.0668296-1.7696636zm0 6.983885-4.0668296 1.7507097v-4.0030663l4.0668296-1.7696636zm0 6.984517-4.0668296 1.750078v-4.002435l4.0668296-1.769663zm-13.3537491-48.6313172-20.8816683 9.0865057v-3.8760751l20.8816683-9.0865057zm0 7.3737038-20.8816683 9.0902964v-3.8811294l20.8816683-9.0852421zm0 7.3749674-20.8816683 9.0839784v-3.8779705l20.8816683-9.0871374zm0 7.3705447-20.8816683 9.0871375v-3.8779705l20.8816683-9.0884011zm0 7.3755992-20.8816683 9.0871374v-3.8817612l20.8816683-9.0846103zm0 7.3705448-20.8816683 9.0871373v-3.8748114l20.8816683-9.09156zm0 7.3737033-20.8816683 9.085242v-3.874811l20.8816683-9.0915601zm0 7.372441-20.8816683 9.086505v-3.879866l20.8816683-9.08461zm0 7.373072-20.8816683 9.085242v-3.87418l20.8816683-9.092192zm0 5.690596-.0098122.004422v1.515682l-20.8718561 9.083978v-3.713703l20.8816683-9.089665zm0 8.792088-20.77308 9.041016v-3.603138l20.77308-9.039121zm-30.3595987-95.9845082-18.814565-8.1880902v-3.4976287l18.814565 8.1868266zm0 6.6420827-18.814565-8.1880902v-3.4976286l18.814565 8.1899856zm0 6.6433464-18.814565-8.1899856v-3.4919425l18.814565 8.1861948zm-.9982277 19.2559115-20.8816684-9.0865057v-3.8798659l20.8816684 9.0890329zm0 7.3705447-20.8816684-9.085242v-3.8779705l20.8816684 9.085242zm0 7.3737038-20.8816684-9.0852421v-3.879234l20.8816684 9.088401zm0 7.3737038-20.8816684-9.0865057v-3.8798659l20.8816684 9.0871375zm0 7.3768627-20.8816684-9.0896646v-3.8760751l20.8816684 9.0833466zm0 7.3692816-20.8816684-9.0884014v-3.876707l20.8816684 9.0871375zm0 7.371808-20.8816684-9.083347v-3.8811292l20.8816684 9.0884012zm0 7.373704-20.8816684-9.086506v-3.87797l20.8816684 9.086505zm0 7.373703-20.8816684-9.086505v-3.879866l20.8816684 9.085242zm0 4.771964v2.60174l-20.8816684-9.088401v-3.881129l20.8816684 9.088401zm-.1190547 9.874988-20.7626137-9.034698v-3.834377l20.7626137 9.036594zm-31.5632285-63.7786517-6.9457288-2.9959818v-6.5751122l6.9457288 3.0212536zm0 13.1104213-6.9457288-2.9940864v-6.5757441l6.9457288 3.0218855zm0 12.7540874-6.9457288-2.9953497v-6.575744l6.9457288 3.0212536zm0 13.111685-6.9457288-2.99535v-6.577007l6.9457288 3.023149zm-9.4491479-43.0519167-6.94376633-2.99535v-6.61302l6.94376633 3.023149zm0 13.1123167-6.94376633-2.9959818v-6.6111247l6.94376633 3.0218855zm0 12.7521923-6.94376633-2.9934546v-6.61302l6.94376633 3.01999zm0 13.1123167-6.94376633-2.99535v-6.61302l6.94376633 3.023149zm48.7836382-67.0621015 18.8178358-8.1899855v3.4988922l-18.8178358 8.1899856zm0-6.6439781 18.8178358-8.1861948v3.4957333l-18.8178358 8.1880902zm0-6.6414509 18.8178358-8.1868266v3.4925742l-18.8178358 8.1880902zm28.3768803 22.0554044v63.7830741l-1.2886688.577463v-73.7907404l-29.2109173 12.8191628v73.3996576l-1.2023214.601471v-74.7302224l30.2300776-13.4339014-6.0717889-2.7982293v-22.5450471l-23.0632473 10.5149988.058219 24.0733643-1.2199834.4586847v-25.2958916l24.1229648-10.9041859-6.6173472-2.892367v-3.18867993l-5.3110163-2.3603939v-2.85825001l-12.1278783-4.01570226-11.5934406 4.43332014v2.08556217l-6.237288 2.67566065v3.25754574l-6.5336164 2.874045v23.8086413l-6.0593601 2.6769242v75.5787258l-1.2435327-.515546v-75.4163544l-24.6763729 11.3357033v71.8024751l57.2378291 25.403297 55.4487379-24.975571v-61.1048863z" transform="translate(194 75)"/><text font-family="Karla-Regular, Karla" font-size="20"><tspan x="24" y="38">2014</tspan></text></g></g></svg>

<?xml version="1.0" encoding="UTF-8"?>
<svg width="500px" height="300px" viewBox="0 0 500 300" version="1.1" xmlns="http://www.w3.org/2000/svg" xmlns:xlink="http://www.w3.org/1999/xlink">
    <!-- Generator: Sketch 58 (84663) - https://sketch.com -->
    <title>nationbuilder_rebrand1</title>
    <desc>Created with Sketch.</desc>
    <g id="nationbuilder_rebrand1" stroke="none" stroke-width="1" fill="none" fill-rule="evenodd">
        <rect id="Rectangle" fill="#60BBD5" x="0" y="0" width="500" height="300"></rect>
        <g id="Group-Copy" transform="translate(194.000000, 75.000000)" fill="#FFFFFF">
            <path d="M108.780004,85.6659984 L104.71252,87.4160763 L104.71252,83.4136418 L108.780004,81.6439781 L108.780004,85.6659984 L108.780004,85.6659984 L108.780004,85.6659984 Z M108.780004,92.6505151 L104.71252,94.400593 L104.71252,90.3981585 L108.780004,88.6284949 L108.780004,92.6505151 L108.780004,92.6505151 L108.780004,92.6505151 Z M108.780004,99.6344001 L104.71252,101.384478 L104.71252,97.3820435 L108.780004,95.6123799 L108.780004,99.6344001 L108.780004,99.6344001 L108.780004,99.6344001 Z M102.874368,88.086413 L98.8075384,89.8371227 L98.8075384,85.8346882 L102.874368,84.0643928 L102.874368,88.086413 L102.874368,88.086413 L102.874368,88.086413 Z M102.874368,95.0709298 L98.8075384,96.8210077 L98.8075384,92.8185731 L102.874368,91.0489095 L102.874368,95.0709298 L102.874368,95.0709298 L102.874368,95.0709298 Z M102.874368,102.054815 L98.8075384,103.804893 L98.8075384,99.8024581 L102.874368,98.0327945 L102.874368,102.054815 L102.874368,102.054815 L102.874368,102.054815 Z M96.7280063,90.763969 L92.6611767,92.514047 L92.6611767,88.5116124 L96.7280063,86.7419488 L96.7280063,90.763969 L96.7280063,90.763969 L96.7280063,90.763969 Z M96.7280063,97.747854 L92.6611767,99.4985637 L92.6611767,95.4954974 L96.7280063,93.7258338 L96.7280063,97.747854 L96.7280063,97.747854 L96.7280063,97.747854 Z M96.7280063,104.732371 L92.6611767,106.482449 L92.6611767,102.480014 L96.7280063,100.710351 L96.7280063,104.732371 L96.7280063,104.732371 L96.7280063,104.732371 Z M83.3742572,56.1010538 L62.4925889,65.1875595 L62.4925889,61.3114844 L83.3742572,52.2249787 L83.3742572,56.1010538 L83.3742572,56.1010538 L83.3742572,56.1010538 Z M83.3742572,63.4747576 L62.4925889,72.565054 L62.4925889,68.6839246 L83.3742572,59.5986825 L83.3742572,63.4747576 L83.3742572,63.4747576 L83.3742572,63.4747576 Z M83.3742572,70.849725 L62.4925889,79.9337034 L62.4925889,76.0557329 L83.3742572,66.9685955 L83.3742572,70.849725 L83.3742572,70.849725 L83.3742572,70.849725 Z M83.3742572,78.2202697 L62.4925889,87.3074072 L62.4925889,83.4294367 L83.3742572,74.3410356 L83.3742572,78.2202697 L83.3742572,78.2202697 L83.3742572,78.2202697 Z M83.3742572,85.5958689 L62.4925889,94.6830063 L62.4925889,90.8012451 L83.3742572,81.7166348 L83.3742572,85.5958689 L83.3742572,85.5958689 L83.3742572,85.5958689 Z M83.3742572,92.9664137 L62.4925889,102.053551 L62.4925889,98.1787396 L83.3742572,89.0871796 L83.3742572,92.9664137 L83.3742572,92.9664137 L83.3742572,92.9664137 Z M83.3742572,100.340117 L62.4925889,109.425359 L62.4925889,105.550548 L83.3742572,96.4589879 L83.3742572,100.340117 L83.3742572,100.340117 L83.3742572,100.340117 Z M83.3742572,107.712558 L62.4925889,116.799063 L62.4925889,112.919197 L83.3742572,103.834587 L83.3742572,107.712558 L83.3742572,107.712558 L83.3742572,107.712558 Z M83.3742572,115.08563 L62.4925889,124.170872 L62.4925889,120.296692 L83.3742572,111.2045 L83.3742572,115.08563 L83.3742572,115.08563 L83.3742572,115.08563 Z M83.3742572,120.776226 L83.364445,120.780648 L83.364445,122.29633 L62.4925889,131.380308 L62.4925889,127.666605 L83.3742572,118.57694 L83.3742572,120.776226 L83.3742572,120.776226 L83.3742572,120.776226 Z M83.3742572,129.568314 L62.6011772,138.60933 L62.6011772,135.006192 L83.3742572,125.967071 L83.3742572,129.568314 L83.3742572,129.568314 L83.3742572,129.568314 Z M53.0146585,33.5838058 L34.2000935,25.3957156 L34.2000935,21.8980869 L53.0146585,30.0849135 L53.0146585,33.5838058 L53.0146585,33.5838058 L53.0146585,33.5838058 Z M53.0146585,40.2258885 L34.2000935,32.0377983 L34.2000935,28.5401697 L53.0146585,36.7301553 L53.0146585,40.2258885 L53.0146585,40.2258885 L53.0146585,40.2258885 Z M53.0146585,46.8692349 L34.2000935,38.6792493 L34.2000935,35.1873068 L53.0146585,43.3735016 L53.0146585,46.8692349 L53.0146585,46.8692349 L53.0146585,46.8692349 Z M52.0164308,66.1251464 L31.1347624,57.0386407 L31.1347624,53.1587748 L52.0164308,62.2478077 L52.0164308,66.1251464 L52.0164308,66.1251464 L52.0164308,66.1251464 Z M52.0164308,73.4956911 L31.1347624,64.4104491 L31.1347624,60.5324786 L52.0164308,69.6177206 L52.0164308,73.4956911 L52.0164308,73.4956911 L52.0164308,73.4956911 Z M52.0164308,80.8693949 L31.1347624,71.7841528 L31.1347624,67.9049188 L52.0164308,76.9933198 L52.0164308,80.8693949 L52.0164308,80.8693949 L52.0164308,80.8693949 Z M52.0164308,88.2430987 L31.1347624,79.156593 L31.1347624,75.2767271 L52.0164308,84.3638646 L52.0164308,88.2430987 L52.0164308,88.2430987 L52.0164308,88.2430987 Z M52.0164308,95.6199614 L31.1347624,86.5302968 L31.1347624,82.6542217 L52.0164308,91.7375683 L52.0164308,95.6199614 L52.0164308,95.6199614 L52.0164308,95.6199614 Z M52.0164308,102.989243 L31.1347624,93.9008416 L31.1347624,90.0241346 L52.0164308,99.1112721 L52.0164308,102.989243 L52.0164308,102.989243 L52.0164308,102.989243 Z M52.0164308,110.361051 L31.1347624,101.277704 L31.1347624,97.3965748 L52.0164308,106.484976 L52.0164308,110.361051 L52.0164308,110.361051 L52.0164308,110.361051 Z M52.0164308,117.734755 L31.1347624,108.648249 L31.1347624,104.770279 L52.0164308,113.856784 L52.0164308,117.734755 L52.0164308,117.734755 L52.0164308,117.734755 Z M52.0164308,125.108458 L31.1347624,116.021953 L31.1347624,112.142087 L52.0164308,121.227329 L52.0164308,125.108458 L52.0164308,125.108458 L52.0164308,125.108458 Z M52.0164308,129.880422 L52.0164308,132.482162 L31.1347624,123.393761 L31.1347624,119.512632 L52.0164308,128.601033 L52.0164308,129.880422 L52.0164308,129.880422 L52.0164308,129.880422 Z M51.8973761,139.75541 L31.1347624,130.720712 L31.1347624,126.886335 L51.8973761,135.922929 L51.8973761,139.75541 L51.8973761,139.75541 L51.8973761,139.75541 Z M20.3341476,75.9767583 L13.3884188,72.9807765 L13.3884188,66.4056643 L20.3341476,69.4269179 L20.3341476,75.9767583 L20.3341476,75.9767583 L20.3341476,75.9767583 Z M20.3341476,89.0871796 L13.3884188,86.0930932 L13.3884188,79.5173491 L20.3341476,82.5392346 L20.3341476,89.0871796 L20.3341476,89.0871796 L20.3341476,89.0871796 Z M20.3341476,101.841267 L13.3884188,98.8459173 L13.3884188,92.2701733 L20.3341476,95.2914269 L20.3341476,101.841267 L20.3341476,101.841267 L20.3341476,101.841267 Z M20.3341476,114.952952 L13.3884188,111.957602 L13.3884188,105.380595 L20.3341476,108.403744 L20.3341476,114.952952 L20.3341476,114.952952 L20.3341476,114.952952 Z M10.8849997,71.9010353 L3.94123337,68.9056853 L3.94123337,62.2926653 L10.8849997,65.3158143 L10.8849997,71.9010353 L10.8849997,71.9010353 L10.8849997,71.9010353 Z M10.8849997,85.013352 L3.94123337,82.0173702 L3.94123337,75.4062455 L10.8849997,78.428131 L10.8849997,85.013352 L10.8849997,85.013352 L10.8849997,85.013352 Z M10.8849997,97.7655443 L3.94123337,94.7720897 L3.94123337,88.1590697 L10.8849997,91.1790597 L10.8849997,97.7655443 L10.8849997,97.7655443 L10.8849997,97.7655443 Z M10.8849997,110.877861 L3.94123337,107.882511 L3.94123337,101.269491 L10.8849997,104.29264 L10.8849997,110.877861 L10.8849997,110.877861 L10.8849997,110.877861 Z M59.6686379,43.8157595 L78.4864737,35.625774 L78.4864737,39.1246662 L59.6686379,47.3146518 L59.6686379,43.8157595 L59.6686379,43.8157595 L59.6686379,43.8157595 Z M59.6686379,37.1717814 L78.4864737,28.9855866 L78.4864737,32.4813199 L59.6686379,40.6694101 L59.6686379,37.1717814 L59.6686379,37.1717814 L59.6686379,37.1717814 Z M59.6686379,30.5303305 L78.4864737,22.3435039 L78.4864737,25.8360781 L59.6686379,34.0241683 L59.6686379,30.5303305 L59.6686379,30.5303305 L59.6686379,30.5303305 Z M88.0455182,52.5857349 L88.0455182,116.368809 L86.7568494,116.946272 L86.7568494,43.1555316 L57.5459321,55.9746944 L57.5459321,129.374352 L56.3436107,129.975823 L56.3436107,55.2456006 L86.5736883,41.8116992 L80.5018994,39.0134699 L80.5018994,16.4684228 L57.4386521,26.9834216 L57.4968711,51.0567859 L56.2768877,51.5154706 L56.2768877,26.219579 L80.3998525,15.3153931 L73.7825053,12.4230261 L73.7825053,9.23434617 L68.471489,6.87395227 L68.471489,4.01570226 L56.3436107,0 L44.7501701,4.43332014 L44.7501701,6.51888231 L38.5128821,9.19454296 L38.5128821,12.4520887 L31.9792657,15.3261337 L31.9792657,39.134775 L25.9199056,41.8116992 L25.9199056,117.390425 L24.6763729,116.874879 L24.6763729,41.4585246 L-7.10542736e-15,52.7942279 L-7.10542736e-15,124.596703 L57.2378291,150 L112.686567,125.024429 L112.686567,63.9195427 L88.0455182,52.5857349 L88.0455182,52.5857349 L88.0455182,52.5857349 Z" id="Fill-3"></path>
        </g>
        <text id="2014" font-family="Karla-Regular, Karla" font-size="20" font-weight="normal" fill="#FFFFFF">
            <tspan x="24" y="38">2014</tspan>
        </text>
    </g>
</svg>
